#src/img/common/smartphone.svg

<svg width="44" height="78" viewBox="0 0 44 78" fill="none" xmlns="http://www.w3.org/2000/svg">
  <g opacity="0.54">
    <path d="M43.49 6.07851V6.08V71.92C43.49 75.0039 40.9939 77.5 37.91 77.5H6.08C2.99668 77.5 0.5 75.0044 0.5 71.91V6.08C0.5 2.99614 2.99614 0.5 6.08 0.5H37.92C41.0041 0.5 43.4992 2.9961 43.49 6.07851ZM42.5 6.08C42.5 3.55386 40.4461 1.5 37.92 1.5H6.08C3.55386 1.5 1.5 3.55386 1.5 6.08V71.92C1.5 74.4451 3.55294 76.5003 6.08043 76.49C6.08103 76.49 6.08162 76.49 6.08222 76.49L37.92 76.49C40.4461 76.49 42.5 74.4361 42.5 71.91V6.08Z" fill="#202020" stroke="#202020"/>
    <path d="M10.5473 4.94847L10.5009 4.5H10.05H6.75C5.51386 4.5 4.5 5.51386 4.5 6.75V71.25C4.5 72.4861 5.51386 73.5 6.75 73.5H37.25C38.4861 73.5 39.5 72.4861 39.5 71.25V6.75C39.5 5.51386 38.4861 4.5 37.25 4.5H33.95H33.4971L33.4524 4.95069C33.3494 5.9902 33.0525 6.57789 32.5791 6.93221C32.0816 7.30465 31.2865 7.5 30 7.5H14C12.719 7.5 11.9262 7.30481 11.4284 6.93221C10.9541 6.57721 10.6551 5.98836 10.5473 4.94847ZM6.75 3.5H11.5V4C11.5 4.46706 11.5061 4.86393 11.5518 5.18126C11.5978 5.49993 11.6937 5.81831 11.9377 6.0623C12.1817 6.30629 12.5001 6.40217 12.8187 6.44815C13.1361 6.49395 13.5329 6.5 14 6.5H30C30.4671 6.5 30.8639 6.49395 31.1813 6.44815C31.4999 6.40217 31.8183 6.30629 32.0623 6.0623C32.3063 5.81831 32.4022 5.49993 32.4482 5.18126C32.4939 4.86393 32.5 4.46706 32.5 4V3.5H37.25C39.0439 3.5 40.5 4.95614 40.5 6.75V71.25C40.5 73.0439 39.0439 74.5 37.25 74.5H6.75C4.95614 74.5 3.5 73.0439 3.5 71.25V6.75C3.5 4.95614 4.95614 3.5 6.75 3.5Z" fill="#202020" stroke="#202020"/>
    <path d="M18 4H26" stroke="#202020" stroke-width="2" stroke-miterlimit="10"/>
    <path d="M28 4H30" stroke="#202020" stroke-width="2" stroke-miterlimit="10"/>
  </g>
</svg>

<svg width="44" height="78" fill="none" xmlns="http://www.w3.org/2000/svg"><g opacity=".54" stroke="#202020"><path d="M43.49 6.079V71.92a5.577 5.577 0 01-5.58 5.58H6.08A5.58 5.58 0 01.5 71.91V6.08A5.577 5.577 0 016.08.5h31.84a5.562 5.562 0 015.57 5.579zm-.99.001a4.584 4.584 0 00-4.58-4.58H6.08A4.584 4.584 0 001.5 6.08v65.84a4.57 4.57 0 004.58 4.57h31.84a4.584 4.584 0 004.58-4.58V6.08z" fill="#202020"/><path d="M10.547 4.948l-.046-.448H6.75A2.258 2.258 0 004.5 6.75v64.5a2.258 2.258 0 002.25 2.25h30.5a2.258 2.258 0 002.25-2.25V6.75a2.258 2.258 0 00-2.25-2.25h-3.753l-.045.45c-.103 1.04-.4 1.628-.873 1.982-.497.373-1.293.568-2.579.568H14c-1.281 0-2.074-.195-2.572-.568-.474-.355-.773-.944-.88-1.984zM6.75 3.5h4.75V4c0 .467.006.864.052 1.181.046.319.142.637.386.881.244.244.562.34.88.386.318.046.715.052 1.182.052h16c.467 0 .864-.006 1.181-.052.319-.046.637-.142.881-.386.244-.244.34-.562.386-.88.046-.318.052-.715.052-1.182v-.5h4.75a3.251 3.251 0 013.25 3.25v64.5a3.251 3.251 0 01-3.25 3.25H6.75a3.251 3.251 0 01-3.25-3.25V6.75A3.251 3.251 0 016.75 3.5z" fill="#202020"/><path d="M18 4h8m2 0h2" stroke-width="2" stroke-miterlimit="10"/></g></svg>
